humanity-icon-theme/Humanity/actions/32/system-lock-screen.svg

<?xml version="1.0" encoding="UTF-8" standalone="no"?>
<!-- Created with Inkscape (http://www.inkscape.org/) -->

<svg
   xmlns:svg="http://www.w3.org/2000/svg"
   xmlns="http://www.w3.org/2000/svg"
   xmlns:xlink="http://www.w3.org/1999/xlink"
   version="1.0"
   width="32"
   height="32"
   id="svg2">
  <defs
     id="defs4">
    <linearGradient
       id="linearGradient10691">
      <stop
         id="stop10693"
         style="stop-color:black;stop-opacity:1"
         offset="0" />
      <stop
         id="stop10695"
         style="stop-color:black;stop-opacity:0"
         offset="1" />
    </linearGradient>
    <linearGradient
       id="linearGradient6732">
      <stop
         id="stop6734"
         style="stop-color:#505050;stop-opacity:1"
         offset="0" />
      <stop
         id="stop6736"
         style="stop-color:#a0a0a0;stop-opacity:1"
         offset="0.35046947" />
      <stop
         id="stop6738"
         style="stop-color:#aaa;stop-opacity:1"
         offset="0.58326507" />
      <stop
         id="stop6740"
         style="stop-color:#bebebe;stop-opacity:1"
         offset="0.72270131" />
      <stop
         id="stop6742"
         style="stop-color:#6e6e6e;stop-opacity:1"
         offset="1" />
    </linearGradient>
    <linearGradient
       id="linearGradient6718">
      <stop
         id="stop6720"
         style="stop-color:#0a0a0a;stop-opacity:1"
         offset="0" />
      <stop
         id="stop6722"
         style="stop-color:#1e1e1e;stop-opacity:1"
         offset="1" />
    </linearGradient>
    <linearGradient
       id="linearGradient6712">
      <stop
         id="stop6714"
         style="stop-color:#5a5a5a;stop-opacity:1"
         offset="0" />
      <stop
         id="stop6716"
         style="stop-color:#323232;stop-opacity:1"
         offset="1" />
    </linearGradient>
    <linearGradient
       id="linearGradient6620">
      <stop
         id="stop6622"
         style="stop-color:#787878;stop-opacity:1"
         offset="0" />
      <stop
         id="stop6624"
         style="stop-color:#bebebe;stop-opacity:1"
         offset="0.35046947" />
      <stop
         id="stop6626"
         style="stop-color:#c8c8c8;stop-opacity:1"
         offset="0.58326507" />
      <stop
         id="stop6628"
         style="stop-color:#e6e6e6;stop-opacity:1"
         offset="0.72270131" />
      <stop
         id="stop6630"
         style="stop-color:#8c8c8c;stop-opacity:1"
         offset="1" />
    </linearGradient>
    <linearGradient
       id="linearGradient6544">
      <stop
         id="stop6546"
         style="stop-color:#f0f0f0;stop-opacity:1"
         offset="0" />
      <stop
         id="stop6548"
         style="stop-color:#d2d2d2;stop-opacity:1"
         offset="1" />
    </linearGradient>
    <linearGradient
       id="linearGradient6602">
      <stop
         id="stop6604"
         style="stop-color:white;stop-opacity:1"
         offset="0" />
      <stop
         id="stop6606"
         style="stop-color:white;stop-opacity:0"
         offset="1" />
    </linearGradient>
    <radialGradient
       cx="12.244348"
       cy="4.8630676"
       r="20.999998"
       fx="12.244348"
       fy="4.8630676"
       id="radialGradient2861"
       xlink:href="#linearGradient6712"
       gradientUnits="userSpaceOnUse"
       gradientTransform="matrix(0.84329801,0.01213717,-0.00785174,0.67846691,-1.4554167,5.8639412)" />
    <linearGradient
       x1="24.875"
       y1="29"
       x2="24.999996"
       y2="3.0000005"
       id="linearGradient2863"
       xlink:href="#linearGradient6718"
       gradientUnits="userSpaceOnUse"
       gradientTransform="matrix(0.60974661,0,0,0.67998443,1.3660821,3.1202446)" />
    <linearGradient
       x1="20.147005"
       y1="-0.00049710274"
       x2="20.103531"
       y2="31.98299"
       id="linearGradient2869"
       xlink:href="#linearGradient6544"
       gradientUnits="userSpaceOnUse"
       gradientTransform="matrix(0.61802505,0,0,0.67812261,1.1672249,3.1502087)" />
    <radialGradient
       cx="24.000004"
       cy="38.641167"
       r="7.9999971"
       fx="24.000004"
       fy="38.641167"
       id="radialGradient2872"
       xlink:href="#linearGradient6602"
       gradientUnits="userSpaceOnUse"
       gradientTransform="matrix(1.1429007,-3.1440355e-8,0,0.43815039,-11.429625,12.069403)" />
    <linearGradient
       x1="320.28125"
       y1="86.913208"
       x2="320.28125"
       y2="93.379616"
       id="linearGradient2875"
       xlink:href="#linearGradient6620"
       gradientUnits="userSpaceOnUse"
       gradientTransform="matrix(0.64213178,0,0,0.63424397,-189.50224,-30.435187)" />
    <linearGradient
       x1="21.71751"
       y1="35.909012"
       x2="21.686279"
       y2="42.361362"
       id="linearGradient2877"
       xlink:href="#linearGradient6732"
       gradientUnits="userSpaceOnUse"
       gradientTransform="matrix(0.64444605,0,0,0.63415279,0.53329523,1.9146693)" />
    <radialGradient
       cx="6.702713"
       cy="73.615715"
       r="7.228416"
       fx="6.702713"
       fy="73.615715"
       id="radialGradient2880"
       xlink:href="#linearGradient10691"
       gradientUnits="userSpaceOnUse"
       gradientTransform="matrix(1.383429,0,0,0.20751435,6.7272729,14.223682)" />
  </defs>
  <path
     d="M 26,29.5 C 26,30.328427 21.522848,31 15.999999,31 10.477151,31 6,30.328427 6,29.5 6,28.671573 10.477151,28 15.999999,28 21.522848,28 26,28.671573 26,29.5 l 0,0 z"
     id="path2589"
     style="opacity:0.5;fill:url(#radialGradient2880);fill-opacity:1;fill-rule:nonzero;stroke:none;stroke-width:0.80000001;marker:none;visibility:visible;display:inline;overflow:visible" />
  <path
     d="m 12.5,21.889939 c 0,0 0,4.439703 0,4.439703 -0.01419,1.14289 -1.255951,1.902732 -1.255951,1.902732 -0.482471,0.05609 -0.722399,0.282876 -0.722399,0.634247 0,0.351372 0.324808,0.634242 0.722399,0.634242 l 9.511894,0 c 0.397591,0 0.722399,-0.28287 0.722399,-0.634242 0,-0.351371 -0.239928,-0.578163 -0.722399,-0.634247 0,0 -1.241752,-0.759842 -1.255943,-1.902732 0,0 0,-4.439703 0,-4.439703 l -7,0 z"
     id="path4675"
     style="fill:url(#linearGradient2875);fill-opacity:1;stroke:url(#linearGradient2877);stroke-width:0.99827462;stroke-linecap:round;stroke-linejoin:round;stroke-miterlimit:4;stroke-opacity:1;stroke-dasharray:none;stroke-dashoffset:0.50000001;display:inline;enable-background:new" />
  <rect
     width="10"
     height="1"
     rx="0.44444442"
     ry="0.50000012"
     x="11"
     y="28"
     id="rect4703"
     style="opacity:0.8;fill:url(#radialGradient2872);fill-opacity:1;stroke:none;display:inline;enable-background:new" />
  <rect
     width="28.999918"
     height="20.999762"
     rx="1"
     ry="1"
     x="1.5000415"
     y="3.5001197"
     id="rect2722"
     style="fill:url(#linearGradient2869);fill-opacity:1;stroke:#aaa;stroke-width:1.00023937;stroke-linecap:round;stroke-linejoin:round;stroke-miterlimit:4;stroke-opacity:1;stroke-dasharray:none;stroke-dashoffset:0.50000001" />
  <rect
     width="24.999599"
     height="16.999599"
     x="3.5002003"
     y="5.5002003"
     id="rect2716"
     style="fill:url(#radialGradient2861);fill-opacity:1;fill-rule:evenodd;stroke:url(#linearGradient2863);stroke-width:1.0004003;stroke-linecap:butt;stroke-linejoin:miter;stroke-miterlimit:4;stroke-opacity:1;stroke-dasharray:none;display:inline;enable-background:new" />
  <path
     d="m 12,11.172214 0,2.810786 -0.357143,0 C 11.289094,13.983 11,14.314586 11,14.615 l 0,4.844704 C 11,19.760115 11.289094,20 11.642857,20 l 8.72321,0 C 20.719834,20 21,19.760115 21,19.459704 L 21,14.615 c 0,-0.300414 -0.280166,-0.632 -0.633933,-0.632 L 20,13.983 20,11.207074 C 20,8.9865593 17.72998,8.0146611 16.008931,8.0001392 14.308713,7.9857942 12,9.0803946 12,11.172214 z M 16.026786,9.5 c 2.095696,0 2.434988,1.242173 2.473214,2.256086 l 0,2.226914 -5,0 0,-2.2182 C 13.5,10.700416 13.951921,9.5 16.026786,9.5 z"
     id="path2086"
     style="opacity:0.8;fill:white;fill-opacity:1;fill-rule:nonzero;stroke:none;stroke-width:1;marker:none;visibility:visible;display:block;overflow:visible" />
</svg>

<?xml version="1.0" encoding="UTF-8" standalone="no"?>
<!-- Created with Inkscape (http://www.inkscape.org/) -->
<svg id="svg2" xmlns="http://www.w3.org/2000/svg" height="32" width="32" version="1.0" xmlns:xlink="http://www.w3.org/1999/xlink">
 <defs id="defs4">
  <radialGradient id="radialGradient2861" gradientUnits="userSpaceOnUse" cy="4.8631" cx="12.244" gradientTransform="matrix(.84330 .012137 -.0078517 .67847 -1.4554 5.8639)" r="21">
   <stop id="stop6714" style="stop-color:#5a5a5a" offset="0"/>
   <stop id="stop6716" style="stop-color:#323232" offset="1"/>
  </radialGradient>
  <linearGradient id="linearGradient2863" y2="3" gradientUnits="userSpaceOnUse" x2="25" gradientTransform="matrix(.60975 0 0 .67998 1.3661 3.1202)" y1="29" x1="24.875">
   <stop id="stop6720" style="stop-color:#0a0a0a" offset="0"/>
   <stop id="stop6722" style="stop-color:#1e1e1e" offset="1"/>
  </linearGradient>
  <linearGradient id="linearGradient2869" y2="31.983" gradientUnits="userSpaceOnUse" x2="20.104" gradientTransform="matrix(.61803 0 0 .67812 1.1672 3.1502)" y1="-.00049710" x1="20.147">
   <stop id="stop6546" style="stop-color:#f0f0f0" offset="0"/>
   <stop id="stop6548" style="stop-color:#d2d2d2" offset="1"/>
  </linearGradient>
  <radialGradient id="radialGradient2872" gradientUnits="userSpaceOnUse" cy="38.641" cx="24" gradientTransform="matrix(1.1429 -3.144e-8 0 .43815 -11.43 12.069)" r="8">
   <stop id="stop6604" style="stop-color:#fff" offset="0"/>
   <stop id="stop6606" style="stop-color:#fff;stop-opacity:0" offset="1"/>
  </radialGradient>
  <linearGradient id="linearGradient2875" y2="93.38" gradientUnits="userSpaceOnUse" x2="320.28" gradientTransform="matrix(.64213 0 0 .63424 -189.5 -30.435)" y1="86.913" x1="320.28">
   <stop id="stop6622" style="stop-color:#787878" offset="0"/>
   <stop id="stop6624" style="stop-color:#bebebe" offset=".35047"/>
   <stop id="stop6626" style="stop-color:#c8c8c8" offset=".58327"/>
   <stop id="stop6628" style="stop-color:#e6e6e6" offset=".72270"/>
   <stop id="stop6630" style="stop-color:#8c8c8c" offset="1"/>
  </linearGradient>
  <linearGradient id="linearGradient2877" y2="42.361" gradientUnits="userSpaceOnUse" x2="21.686" gradientTransform="matrix(.64445 0 0 .63415 .53330 1.9147)" y1="35.909" x1="21.718">
   <stop id="stop6734" style="stop-color:#505050" offset="0"/>
   <stop id="stop6736" style="stop-color:#a0a0a0" offset=".35047"/>
   <stop id="stop6738" style="stop-color:#aaa" offset=".58327"/>
   <stop id="stop6740" style="stop-color:#bebebe" offset=".72270"/>
   <stop id="stop6742" style="stop-color:#6e6e6e" offset="1"/>
  </linearGradient>
  <radialGradient id="radialGradient2880" gradientUnits="userSpaceOnUse" cy="73.616" cx="6.7027" gradientTransform="matrix(1.3834 0 0 .20751 6.7273 14.224)" r="7.2284">
   <stop id="stop10693" offset="0"/>
   <stop id="stop10695" style="stop-opacity:0" offset="1"/>
  </radialGradient>
 </defs>
 <path id="path2589" style="opacity:.5;fill:url(#radialGradient2880)" d="m26 29.5c0 0.828-4.477 1.5-10 1.5s-10-0.672-10-1.5 4.477-1.5 10-1.5 10 0.672 10 1.5z"/>
 <path id="path4675" style="stroke-linejoin:round;stroke-width:.99827;stroke-dashoffset:0.5;stroke:url(#linearGradient2877);stroke-linecap:round;enable-background:new;fill:url(#linearGradient2875)" d="m12.5 21.89v4.4397c-0.01419 1.1429-1.256 1.9027-1.256 1.9027-0.48247 0.05609-0.7224 0.28288-0.7224 0.63425s0.32481 0.63424 0.7224 0.63424h9.5119c0.39759 0 0.7224-0.28287 0.7224-0.63424s-0.23993-0.57816-0.7224-0.63425c0 0-1.2418-0.75984-1.2559-1.9027v-4.4397h-7z"/>
 <rect id="rect4703" style="opacity:.8;enable-background:new;fill:url(#radialGradient2872)" rx=".44444" ry="0.5" height="1" width="10" y="28" x="11"/>
 <rect id="rect2722" style="stroke-linejoin:round;stroke-dashoffset:0.5;stroke:#aaa;stroke-linecap:round;stroke-width:1.0002;fill:url(#linearGradient2869)" rx="1" ry="1" height="21" width="29" y="3.5001" x="1.5"/>
 <rect id="rect2716" style="stroke-width:1.0004;fill-rule:evenodd;stroke:url(#linearGradient2863);enable-background:new;fill:url(#radialGradient2861)" height="17" width="25" y="5.5002" x="3.5002"/>
 <path id="path2086" style="opacity:.8;display:block;fill:#fff" d="m12 11.172v2.8108h-0.35714c-0.354 0-0.643 0.332-0.643 0.632v4.8447c0 0.3 0.289 0.54 0.643 0.54h8.7232c0.354 0 0.634-0.24 0.634-0.54v-4.845c0-0.30041-0.28017-0.632-0.63393-0.632h-0.366v-2.776c0-2.2204-2.27-3.1923-3.991-3.2069-1.7-0.0143-4.009 1.0803-4.009 3.1719zm4.027-1.672c2.0957 0 2.435 1.2422 2.4732 2.2561v2.2269h-5v-2.2182c0-1.065 0.452-2.265 2.527-2.265z"/>
</svg>
